X:007
T:Black Mare of Fanad (r)
B:NFID.065
007black_m
S:JD
N:Close relative of "Nine Points of Roguery"
L:1/8
M:C
R:reel
Q:360
K:D
A,|D2FD GFED|AdAF AdAF|D2FA GFED|=cE (3EEE cEEF|
"5"DEFD GFED|AdAF AdAF|D2FA GFEc|dD (3DDD dDD:|
B|"9"=c2cA B2BG|A2Ad AGFE|(3DDD FA GFEd|=cE (3EEE ceed|
"13"=cecA BdBG|Adcd fdAF|(3DED FA GFEc|dD (3DDD dDD:|
c|"17"d2fa gfec|defg abaf|d2fa gfga|be (3efe beef|
"21"d2fa gfec|defg abaf|d2fa gfeg|fage fdA:|
B|"25"=cecA BdBG|Adcd fdAF|D2FA GFEd|=cE (3EEE ceed|
"29"(3=cdc ca B2BG|A2Ad AGFE|(3DED FA GFEc|d2 (3DDD dDDB|
"33"=c2cA B2BG|A2Ad AGFE|(3DED FA GFEd|=cE (3EEE ceed|
"37"=cecA BdBG|Adcd fdAF|(3DED FA GFEc|dD (3DDD dDD||

%%%

